public/images/icons/forum.svg

<svg fill="none" viewBox="0 0 48 45" xmlns="http://www.w3.org/2000/svg" xmlns:xlink="http://www.w3.org/1999/xlink"><linearGradient id="a"><stop offset="0" stop-color="#ffe7e0"/><stop offset=".344" stop-color="#f8dbf4"/><stop offset=".688" stop-color="#c4ddff"/><stop offset="1" stop-color="#cae9ff"/></linearGradient><linearGradient id="b" gradientUnits="userSpaceOnUse" x1="17" x2="36.393" xlink:href="#a" y1="24.5" y2="11.58"/><linearGradient id="c" gradientUnits="userSpaceOnUse" x1=".667" x2="26.807" xlink:href="#a" y1="16.333" y2="3.272"/><linearGradient id="d" gradientUnits="userSpaceOnUse" x1="14.667" x2="40.807" xlink:href="#a" y1="28" y2="14.939"/><linearGradient id="e" gradientUnits="userSpaceOnUse" x1="3" x2="22.393" xlink:href="#a" y1="12.833" y2="-.087"/><path d="m31 14v9.333h-14v11.667h28v-21z" fill="url(#b)" opacity=".3"/><path d="m28.667 0h-23.334a4.68 4.68 0 0 0 -4.666 4.667v28l7-7h21a4.68 4.68 0 0 0 4.666-4.667v-16.333a4.68 4.68 0 0 0 -4.666-4.667zm0 21h-22.867l-.467.467v-16.8h23.334z" fill="url(#c)"/><path d="m42.667 11.667h-11.667v4.666h11.667v16.8l-.467-.466h-22.867v-9.334h-4.666v9.334a4.68 4.68 0 0 0 4.666 4.666h21l7 7v-28a4.68 4.68 0 0 0 -4.666-4.666z" fill="url(#d)"/><path d="m3 2.333h28v21h-28z" fill="url(#e)" opacity=".3"/></svg>

<svg viewBox="0 0 48 45" fill="none" xmlns="http://www.w3.org/2000/svg"><path opacity=".3" d="M31 14v9.333H17V35h28V14H31Z" fill="url(#a)"/><path d="M28.667 0H5.333A4.68 4.68 0 0 0 .667 4.667v28l7-7h21A4.68 4.68 0 0 0 33.333 21V4.667A4.68 4.68 0 0 0 28.667 0Zm0 21H5.8l-.467.467v-16.8h23.334V21Z" fill="url(#b)"/><path d="M42.667 11.667H31v4.666h11.667v16.8l-.467-.466H19.333v-9.334h-4.666v9.334a4.68 4.68 0 0 0 4.666 4.666h21l7 7v-28a4.68 4.68 0 0 0-4.666-4.666Z" fill="url(#c)"/><path opacity=".3" d="M3 2.333h28v21H3v-21Z" fill="url(#d)"/><defs><linearGradient id="a" x1="17" y1="24.5" x2="36.393" y2="11.58" gradientUnits="userSpaceOnUse"><stop stop-color="#FFE7E0"/><stop offset=".344" stop-color="#F8DBF4"/><stop offset=".688" stop-color="#C4DDFF"/><stop offset="1" stop-color="#CAE9FF"/></linearGradient><linearGradient id="b" x1=".667" y1="16.333" x2="26.807" y2="3.272" gradientUnits="userSpaceOnUse"><stop stop-color="#FFE7E0"/><stop offset=".344" stop-color="#F8DBF4"/><stop offset=".688" stop-color="#C4DDFF"/><stop offset="1" stop-color="#CAE9FF"/></linearGradient><linearGradient id="c" x1="14.667" y1="28" x2="40.807" y2="14.939" gradientUnits="userSpaceOnUse"><stop stop-color="#FFE7E0"/><stop offset=".344" stop-color="#F8DBF4"/><stop offset=".688" stop-color="#C4DDFF"/><stop offset="1" stop-color="#CAE9FF"/></linearGradient><linearGradient id="d" x1="3" y1="12.833" x2="22.393" y2="-.087" gradientUnits="userSpaceOnUse"><stop stop-color="#FFE7E0"/><stop offset=".344" stop-color="#F8DBF4"/><stop offset=".688" stop-color="#C4DDFF"/><stop offset="1" stop-color="#CAE9FF"/></linearGradient></defs></svg>
